X: 13
T: Quam pulchra es / Labia tua lilia
N: Derived from Mou2126-Quam_pulchra_es.krn
C: Mouton
%%abc-version 2.0
%%abcx-abcm2ps-target-version 5.9.1 (29 Sep 2008)
%%abc-creator hum2abc beta
%%abcx-conversion-date 2019/02/17 07:22:04
%%abc-edited-by Jesse Rodin
%%abc-edited-by Joel Chapman 2012/1/21
%%abcx-initial-encoding-date 2012/01/21/
%%humdrum-veritas 2877980483
%%humdrum-veritas-data 3440348355
%%linebreak <none>
%%barnumbers 0
L: 1/4
M: 2/1
Q: 1/2=120
%%staves [1 2 3 4]
V: 1 clef=treble
V: 2 clef=treble-8
V: 3 clef=treble-8
V: 4 clef=bass
K: F
[V:1] z8 | 
[V:2] F8 | 
[V:3] z8 | 
[V:4] z8 | 
[V:1] z8 | 
[V:2] F4B4 | 
[V:3] z8 | 
[V:4] z8 | 
[V:1] F8 | 
[V:2] A4z2A2 | 
[V:3] z8 | 
[V:4] z8 | 
[V:1] F4B4 | 
[V:2] c2c2d4 | 
[V:3] z8 | 
[V:4] z8 | 
[V:1] A4z2A2 | 
[V:2] c3B/c/d2c2- | 
[V:3] z8 | 
[V:4] F,,8 | 
[V:1] c2c2d4 | 
[V:2] cBA4G2 | 
[V:3] z8 | 
[V:4] F,,4B,,4 | 
[V:1] c8- | 
[V:2] A3G/F/E2A2 | 
[V:3] C8 | 
[V:4] A,,4z2A,,2 | 
[V:1] c4z2A2 | 
[V:2] G2A4GF | 
[V:3] C4F4 | 
[V:4] C,2C,2D,4 | 
[V:1] c6c2 | 
[V:2] A2G4c2- | 
[V:3] E4z2E2 | 
[V:4] C,8 | 
[V:1] d4c4- | 
[V:2] c2B2c4 | 
[V:3] G2G2A4 | 
[V:4] z4z2A,,2 | 
[V:1] c4z2A2 | 
[V:2] z2E2F3G | 
[V:3] G4z4 | 
[V:4] C,2C,2D,4 | 
[V:1] c2c2d4 | 
[V:2] ABc4B2 | 
[V:3] z2E2G4- | 
[V:4] C,4z2G,,2 | 
[V:1] !fermata!c8- | 
[V:2] c2C2F4 | 
[V:3] G2G2A4 | 
[V:4] C,2C,2F,,4 | 
[V:1] c8 | 
[V:2] E3D!fermata!E4 | 
[V:3] !fermata!G8 | 
[V:4] !fermata!C,8 | 
[V:1] z8 | 
[V:2] F8 | 
[V:3] z8 | 
[V:4] z8 | 
[V:1] z8 | 
[V:2] F4B4 | 
[V:3] z8 | 
[V:4] z8 | 
[V:1] F8 | 
[V:2] A4z2F2 | 
[V:3] z8 | 
[V:4] z8 | 
[V:1] F4B4 | 
[V:2] c4d4 | 
[V:3] z8 | 
[V:4] z8 | 
[V:1] A4z2F2 | 
[V:2] c2FGABc2- | 
[V:3] z8 | 
[V:4] F,,8 | 
[V:1] c4d4 | 
[V:2] cBA4G2 | 
[V:3] z8 | 
[V:4] F,,4B,,4 | 
[V:1] c8- | 
[V:2] A2GFE2F2 | 
[V:3] C8 | 
[V:4] A,,4z2F,,2 | 
[V:1] c4z2F2 | 
[V:2] G2A4GF | 
[V:3] C4F4 | 
[V:4] C,4D,4 | 
[V:1] c8 | 
[V:2] A2G3FF2- | 
[V:3] E4z2C2 | 
[V:4] C,6B,,A,, | 
[V:1] B3cd2c2- | 
[V:2] F2E2F2C2- | 
[V:3] G4A4 | 
[V:4] G,,4F,,4 | 
[V:1] c2BAG4 | 
[V:2] CDEFG2C2- | 
[V:3] G4z4 | 
[V:4] C,8- | 
[V:1] z2c4c2 | 
[V:2] CDEFGCc2- | 
[V:3] G8 | 
[V:4] C,8 | 
[V:1] d4c2CD | 
[V:2] c2B2c4 | 
[V:3] G4A4 | 
[V:4] z4C,4- | 
[V:1] EFG2C2c2- | 
[V:2] z8 | 
[V:3] G2E2G4 | 
[V:4] C,4C,4 | 
[V:1] c2B2c4 | 
[V:2] z4z2c2- | 
[V:3] F4E4- | 
[V:4] D,4C,2A,,2 | 
[V:1] z2A4G2 | 
[V:2] c2c2d4 | 
[V:3] E4z2D2 | 
[V:4] C,4B,,4 | 
[V:1] A4G2E2 | 
[V:2] c2A2c4 | 
[V:3] F4E4 | 
[V:4] A,,2F,,2C,3B,, | 
[V:1] G4F4 | 
[V:2] B4A4 | 
[V:3] D4z4 | 
[V:4] G,,4D,4 | 
[V:1] E3FGCc2- | 
[V:2] z2c4c2 | 
[V:3] G8 | 
[V:4] C,8 | 
[V:1] c2B2c4 | 
[V:2] d4c2CD | 
[V:3] G4A4 | 
[V:4] z4C,4- | 
[V:1] z8 | 
[V:2] EFG2C2c2- | 
[V:3] G2E2G4 | 
[V:4] C,4C,4 | 
[V:1] z4z2c2- | 
[V:2] c2B2c4 | 
[V:3] F4E4- | 
[V:4] D,4C,2A,,2 | 
[V:1] c2c2d4 | 
[V:2] z2G4G2 | 
[V:3] E4z2D2 | 
[V:4] C,4B,,4 | 
[V:1] c2A2c4 | 
[V:2] A4G2E2 | 
[V:3] F4E4 | 
[V:4] A,,2F,,2C,3B,, | 
[V:1] B3A/G/A2B2- | 
[V:2] G4F4 | 
[V:3] D4z4 | 
[V:4] G,,4D,3C, | 
[V:1] BAA4G2 | 
[V:2] E4z4 | 
[V:3] z2E2D2C2 | 
[V:4] A,,2C,2B,,2C,2 | 
[V:1] A8- | 
[V:2] z8 | 
[V:3] F4F2D2 | 
[V:4] F,,4z4 | 
[V:1] A4z4 | 
[V:2] z8 | 
[V:3] E2F2G2A2- | 
[V:4] A,,4G,,2F,,2 | 
[V:1] z8 | 
[V:2] z4z2A2 | 
[V:3] A2GFE2F2 | 
[V:4] C,4C,2A,,2 | 
[V:1] z8 | 
[V:2] G2F2c4 | 
[V:3] D4E3D | 
[V:4] B,,4A,,4- | 
[V:1] z2A2G2F2 | 
[V:2] c2A2B2A2- | 
[V:3] E2F2D2C2 | 
[V:4] A,,2F,,2G,,2A,,2 | 
[V:1] c6A2 | 
[V:2] A2F2A4 | 
[V:3] F8 | 
[V:4] F,,4z2F,2- | 
[V:1] B4A2A2- | 
[V:2] G4F2c2- | 
[V:3] z8 | 
[V:4] F,2E,2F,3F,, | 
[V:1] A2F2G4 | 
[V:2] c2BAB2c2 | 
[V:3] z2F4E2 | 
[V:4] F,,4z2C,2 | 
[V:1] F4z4 | 
[V:2] A2B3AGF | 
[V:3] F4z2F2 | 
[V:4] D,6D,2 | 
[V:1] z2c2d4- | 
[V:2] E4z2G2 | 
[V:3] G6G2 | 
[V:4] C,3B,,/A,,/G,,4 | 
[V:1] d2d2c2A2 | 
[V:2] A6A2 | 
[V:3] F2D2E2F2 | 
[V:4] D,3C,/B,,/A,,2F,,2 | 
[V:1] B2c2A2d2- | 
[V:2] G2E2F2G2- | 
[V:3] D2C4D2- | 
[V:4] G,,2A,,2F,,2B,,2 | 
[V:1] dcc4B2 | 
[V:2] G2A3GF2- | 
[V:3] D2E2F4 | 
[V:4] G,,2C,2D,4 | 
[V:1] c4z2A2 | 
[V:2] F2E2F4 | 
[V:3] G2C4F2- | 
[V:4] C,4F,,4 | 
[V:1] c6B2 | 
[V:2] z4A4 | 
[V:3] FE/D/E2F4 | 
[V:4] z2C,2F,4- | 
[V:1] A2G2F2E2 | 
[V:2] c3cB2A2 | 
[V:3] z4F4 | 
[V:4] F,2E,2D,2C,2 | 
[V:1] D2C2G4 | 
[V:2] G2F4E2 | 
[V:3] B6B2 | 
[V:4] B,,2A,,2G,,4 | 
[V:1] C4z4 | 
[V:2] FGABc2d2- | 
[V:3] A4A2G2 | 
[V:4] F,,8 | 
[V:1] z4z2F2 | 
[V:2] dcc4B2 | 
[V:3] F2E2D4 | 
[V:4] z2C,2F,4- | 
[V:1] c3cB2A2 | 
[V:2] A3GF2E2 | 
[V:3] C4z2F2 | 
[V:4] F,2E,2D,2C,2 | 
[V:1] G2F4E2 | 
[V:2] D2C2z2G2 | 
[V:3] B6B2 | 
[V:4] B,,2A,,2G,,4 | 
[V:1] F4z2F2 | 
[V:2] c6B2 | 
[V:3] A6G2 | 
[V:4] F,,8- | 
[V:1] c6B2 | 
[V:2] A2G2F2D2 | 
[V:3] F2E2D4 | 
[V:4] F,,8- | 
[V:1] A2G2F2C2 | 
[V:2] F3GA4- | 
[V:3] C8- | 
[V:4] F,,8- | 
[V:1] F3GA2B2 | 
[V:2] A2GFF4- | 
[V:3] C8- | 
[V:4] F,,8- | 
[V:1] A8 ||  
[V:2] F8 ||  
[V:3] C8 ||  
[V:4] F,,8 ||  
[V:1]  [K:F] [M:2/1]z8 | 
[V:2]  [K:F] [M:2/1]z8 | 
[V:3]  [K:F] [M:2/1]C6C2 | 
[V:4]  [K:F] [M:2/1]C,6A,,2 | 
[V:1] z8 | 
[V:2] z8 | 
[V:3] D4E4 | 
[V:4] B,,4C,4 | 
[V:1] z2A2A2A2 | 
[V:2] z2c2c2c2 | 
[V:3] F8 | 
[V:4] F,,8 | 
[V:1] B6A2 | 
[V:2] d6c2 | 
[V:3] z8 | 
[V:4] z8 | 
[V:1] G3FE4 | 
[V:2] B4c4 | 
[V:3] z8 | 
[V:4] z8 | 
[V:1] F8 | 
[V:2] A8 | 
[V:3] C8 | 
[V:4] F,,8 | 
[V:1] z8 | 
[V:2] z8 | 
[V:3] D4E4 | 
[V:4] B,,4G,,4 | 
[V:1] z2A4A2 | 
[V:2] c6c2 | 
[V:3] F8 | 
[V:4] F,,8 | 
[V:1] B4G4 | 
[V:2] d4B4 | 
[V:3] z8 | 
[V:4] z8 | 
[V:1] A8 | 
[V:2] c8 | 
[V:3] z2F2F2F2 | 
[V:4] z2F,,2F,,2F,,2 | 
[V:1] z8 | 
[V:2] z8 | 
[V:3] G6F2 | 
[V:4] C,6D,2 | 
[V:1] z4z2A2 | 
[V:2] z4z2c2 | 
[V:3] E2D2E4 | 
[V:4] C,2B,,2A,,4 | 
[V:1] A2G2A4- | 
[V:2] c2B2c4- | 
[V:3] z8 | 
[V:4] z8 | 
[V:1] A2B2A2G2 | 
[V:2] c2d2c2B2 | 
[V:3] z8 | 
[V:4] z8 | 
[V:1] A4z2A2 | 
[V:2] A4z2c2 | 
[V:3] C4C2C2 | 
[V:4] F,,4F,,2F,,2 | 
[V:1] A2A2A4- | 
[V:2] c2c2c4- | 
[V:3] C8 | 
[V:4] F,,4z2F,,2- | 
[V:1] A4z4 | 
[V:2] c8- | 
[V:3] z2C3DEF | 
[V:4] F,,G,,A,,B,,C,3D, | 
[V:1] z8 | 
[V:2] c8- | 
[V:3] G2A4GF | 
[V:4] E,2F,4E,D, | 
[V:1] z2F3GAB | 
[V:2] c4z2F2- | 
[V:3] G2A2F4 | 
[V:4] E,2F,2F,,4- | 
[V:1] c3BAGB2- | 
[V:2] FGABc2d2- | 
[V:3] z8 | 
[V:4] F,,4z4 | 
[V:1] BAA4G2 | 
[V:2] d2c3B/A/B2 | 
[V:3] z2F2D2E2 | 
[V:4] z2F,,2G,,2G,,2 | 
[V:1] A8- | 
[V:2] c8- | 
[V:3] F4z2C2 | 
[V:4] F,,8 | 
[V:1] A4z4 | 
[V:2] c4z2F2 | 
[V:3] F6F2 | 
[V:4] z2F,,2B,,4- | 
[V:1] z8 | 
[V:2] B6B2 | 
[V:3] D4G3F | 
[V:4] B,,2B,,2G,,4 | 
[V:1] z8 | 
[V:2] G2c4BA | 
[V:3] EDE2C2F2- | 
[V:4] C,3B,,A,,G,,F,,2 | 
[V:1] z2G2c4- | 
[V:2] B4A4- | 
[V:3] F2E2F4 | 
[V:4] G,,4F,,4 | 
[V:1] c2c2A3B | 
[V:2] A4z4 | 
[V:3] z8 | 
[V:4] z2C,2F,4- | 
[V:1] c2d4cB | 
[V:2] z8 | 
[V:3] z8 | 
[V:4] F,2F,2D,4 | 
[V:1] _e2d3cc2- | 
[V:2] z8 | 
[V:3] z2G2G2E2 | 
[V:4] G,3F,E,2D,C, | 
[V:1] c2=B2c4- | 
[V:2] z8 | 
[V:3] F3GA2G2- | 
[V:4] D,4C,4 | 
[V:1] c8 | 
[V:2] z8 | 
[V:3] GFEDECF2- | 
[V:4] z2C,2C,2A,,2 | 
[V:1] z8 | 
[V:2] z2c2c2A2 | 
[V:3] F2E2F4 | 
[V:4] B,,2C,2F,,2F,2- | 
[V:1] z2c2c2A2 | 
[V:2] B2c2F4- | 
[V:3] G4A2DE | 
[V:4] F,E,/D,/E,2F,3E, | 
[V:1] B2c2F4 | 
[V:2] F2c3B/A/B2 | 
[V:3] FGA4GF | 
[V:4] D,2C,2D,4 | 
[V:1] G3FEDC2 | 
[V:2] c8- | 
[V:3] E2G2G2E2 | 
[V:4] C,8 | 
[V:1] c3B/A/GFA2 | 
[V:2] c4z4 | 
[V:3] F2G2C2F2- | 
[V:4] z2C,2C,2A,,2 | 
[V:1] G4F4 | 
[V:2] z2c2c2A2 | 
[V:3] FE/D/E2F4 | 
[V:4] B,,2C,2F,,2F,2- | 
[V:1] z2c2c2A2 | 
[V:2] B2c2F4- | 
[V:3] G4A2DE | 
[V:4] F,E,/D,/E,2F,3E, | 
[V:1] B2c2F4 | 
[V:2] F2c3B/A/B2 | 
[V:3] FGA4GF | 
[V:4] D,2C,2D,4 | 
[V:1] G4z4 | 
[V:2] c4z4 | 
[V:3] E4z4 | 
[V:4] C,4z4 | 
[V:1] [M:3/1]G4G4G4 | 
[V:2] [M:3/1]c4c4c4 | 
[V:3] [M:3/1]E4E4E4 | 
[V:4] [M:3/1]C,4C,4C,4 | 
[V:1] A4G8 | 
[V:2] c4B8 | 
[V:3] F4D8 | 
[V:4] F,,4G,,8 | 
[V:1] E8z4 | 
[V:2] c8z4 | 
[V:3] C8z4 | 
[V:4] A,,8z4 | 
[V:1] G4G4G4 | 
[V:2] c4c4c4 | 
[V:3] E4E4E4 | 
[V:4] C,4C,4C,4 | 
[V:1] A4G8 | 
[V:2] c4B8 | 
[V:3] F4D8 | 
[V:4] F,,4G,,8 | 
[V:1] E8z4 | 
[V:2] A12- | 
[V:3] C8z4 | 
[V:4] A,,12- | 
[V:1] z12 | 
[V:2] A12 | 
[V:3] E8D4 | 
[V:4] A,,8z4 | 
[V:1] z12 | 
[V:2] z12 | 
[V:3] E4F4G4 | 
[V:4] A,,8G,,4 | 
[V:1] z12 | 
[V:2] A8G4 | 
[V:3] E6DCD4 | 
[V:4] C,4B,,8 | 
[V:1] A8G4 | 
[V:2] c8B4 | 
[V:3] E4C2F4E2 | 
[V:4] A,,8z4 | 
[V:1] c8B4 | 
[V:2] A4F4G4 | 
[V:3] F4C4z4 | 
[V:4] A,,8G,,4 | 
[V:1] A6GFG4 | 
[V:2] A4B8 | 
[V:3] E8D4 | 
[V:4] C,4B,,8 | 
[V:1] [M:2/1]A8- | 
[V:2] [M:2/1]c8- | 
[V:3] [M:2/1]F6E2 | 
[V:4] [M:2/1]A,,8- | 
[V:1] A8- | 
[V:2] c8 | 
[V:3] E4z2C2 | 
[V:4] A,,8 | 
[V:1] A8 | 
[V:2] z2c2c4 | 
[V:3] C4C4 | 
[V:4] z4F,,4 | 
[V:1] z2F2F4 | 
[V:2] c4f4- | 
[V:3] F6E2 | 
[V:4] F,,4F,,4 | 
[V:1] F4B4 | 
[V:2] f2e2d3c | 
[V:3] D8- | 
[V:4] B,,6A,,2 | 
[V:1] B2B4A2 | 
[V:2] B3AG2F2 | 
[V:3] D4_E4- | 
[V:4] G,,2F,,2_E,,4- | 
[V:1] G4F4- | 
[V:2] B3A/G/A4 | 
[V:3] E4C4 | 
[V:4] E,,4F,,4- | 
[V:1] F2G2A4 | 
[V:2] z4z2c2 | 
[V:3] z2C2C4 | 
[V:4] F,,4z4 | 
[V:1] z4F4 | 
[V:2] c4c4 | 
[V:3] C4F4- | 
[V:4] F,,4F,,4 | 
[V:1] F4F4 | 
[V:2] f6e2 | 
[V:3] F2E2D4- | 
[V:4] F,,4B,,4- | 
[V:1] B4B2B2- | 
[V:2] d3cB3A | 
[V:3] D8 | 
[V:4] B,,2A,,2G,,2F,,2 | 
[V:1] B2A2G4 | 
[V:2] G2F2B3A/G/ | 
[V:3] _E8 | 
[V:4] _E,,8 | 
[V:1] F8 |]  
[V:2] A8 |]  
[V:3] C8 |]  
[V:4] F,,8 |]  



